X: 669
M: 6/8
L: 1/8
K: D
|:\
d2f agf | e2f gfe | fed edc | dBG AFD |\
d2f agf | e2f gfe | fed edc | d3- d3 :|
|:\
f2d cBA | B2A FED | DFD EGE | FAF FED |\

